X:152
T:Slipped Disc
C:Arr. Jethro Burns
N:TablEdited by Mike Stangeland
L:1/8
Q:1/4=215
M:4/4
K:F
z4 zd _dc |: =B"G7"d fa "C7"ge c_B | "F"Ac eg "F#"fc BA | "Gm"GB df "C7"ed BG | 
"F"Ac4d _dc | "G7"=Bd fa "C7"ge c_B | "F"Ac eg "F#"fc BA | "Gm"GA B=B "C7"c_d =de | 
|1 f"F"F4d _dc :|2 f"F"F4f ed |] "A7"_dc d=d eg fe | "Dm"d_d =de fa gf | "A7"e_e =ef gb a_a | 
"Dm"a4 zd _dc | "G"=Bd fa ge d_e | "C"eg ec Ac BA | "G7"GA B=B A2 G2 | [cE][B4E4]d _dc :|3 f"F"F7/1 | 


